svg/black/zrx.svg

<svg xmlns="http://www.w3.org/2000/svg" width="32" height="32" viewBox="0 0 32 32">
  <path d="M16,32 C7.163444,32 0,24.836556 0,16 C0,7.163444 7.163444,0 16,0 C24.836556,0 32,7.163444 32,16 C32,24.836556 24.836556,32 16,32 Z M15.4957419,27 L16.5205771,27 C16.5652267,26.9912553 16.6095439,26.9792176 16.6546366,26.9742918 C16.993774,26.9372377 17.3354872,26.9169258 17.6718548,26.8631572 C20.3422982,26.4362189 22.5576041,25.1877535 24.3410942,23.1624252 C24.4115586,23.0824226 24.4199788,23.0299824 24.3533922,22.9418717 C23.5833533,21.9227321 22.817469,20.9005208 22.0500614,19.8794164 C22.0258808,19.847205 21.9972962,19.8183145 21.965831,19.7822566 C21.9261948,19.8409233 21.8929292,19.8905409 21.8593035,19.9399371 C21.1566544,20.972166 20.2456867,21.7660755 19.1312477,22.3300503 C19.0255235,22.3835698 18.960488,22.3849811 18.8712166,22.2947396 C18.5080372,21.9274088 18.1353295,21.5695421 17.7658349,21.2084654 C17.5458831,20.9934742 17.3254051,20.7790365 17.1012432,20.5605862 C14.8930281,22.2106138 12.6970556,23.8514818 10.4905855,25.5002088 C10.5276457,25.5259723 10.5450125,25.5402239 10.5642905,25.5511824 C11.8467748,26.2818038 13.2204694,26.7377434 14.686316,26.9145459 C14.9556538,26.9470616 15.2259056,26.9717459 15.4957419,27 Z M16.4651806,5 L15.5234402,5 C15.4745805,5.00893836 15.4260254,5.02064403 15.3768057,5.0264 C14.9418601,5.07723522 14.5024828,5.10310943 14.0725229,5.1811195 C11.8391024,5.58627925 9.91307702,6.59321509 8.28971043,8.17627421 C8.04059239,8.41921509 7.81064154,8.68174843 7.56191127,8.94572075 C8.39050435,10.049678 9.20466664,11.1344302 10.029382,12.2332126 C10.0791834,12.1597686 10.1049705,12.1217459 10.1307299,12.0837233 C10.8416054,11.0337283 11.7651204,10.2268956 12.9000561,9.65971069 C12.9938146,9.6128327 13.0509007,9.62110692 13.1260184,9.69546415 C13.5947558,10.1594566 14.0686451,10.6182742 14.5412603,11.0783648 C14.6258508,11.1607195 14.7124909,11.2410264 14.800599,11.3245711 C17.0450157,9.71491824 19.2769405,8.1141761 21.5193629,6.50587925 C21.4859866,6.48235723 21.4687029,6.46791195 21.4493972,6.45692579 C20.0758688,5.67250818 18.6017126,5.20527799 17.0265133,5.05628679 C16.8393008,5.0385761 16.6522823,5.01881761 16.4651806,5 Z M6.45929666,10.5343892 C5.12424112,12.953642 4.68328502,15.4916118 5.2273063,18.1782408 C5.73531986,20.6870709 7.00124057,22.7564823 8.95075404,24.4345703 C10.048491,23.6114936 11.1318248,22.7991816 12.2118626,21.9893326 C12.1936095,21.9552948 12.1913936,21.9449452 12.185023,21.9403791 C12.1513419,21.9161376 12.116636,21.8933904 12.0822902,21.8701175 C11.032222,21.1587011 10.2247072,20.2360571 9.65902593,19.1009401 C9.6151796,19.0129678 9.61758935,18.9575942 9.69010336,18.8860043 C9.94606287,18.6332672 10.1949039,18.3733351 10.4461547,18.1158659 C10.7808881,17.772915 11.1153444,17.429715 11.4543155,17.0821426 C9.7922822,14.9034231 8.13490215,12.7308747 6.45929666,10.5343892 Z M20.6340909,14.9040818 C22.282386,17.0811409 23.9185492,19.242205 25.5573714,21.406756 C26.7814677,19.3509044 27.4107719,16.430605 26.7042727,13.4786755 C26.138259,11.1136063 24.90541,9.15480377 23.0479655,7.56413459 C21.950007,8.38806918 20.8668947,9.2008239 19.7694624,10.0243711 C19.8319774,10.0688138 19.867902,10.0955736 19.9050454,10.1205623 C20.970043,10.836434 21.7849808,11.7700918 22.3552324,12.9190176 C22.4030118,13.0153195 22.4042583,13.0759786 22.3226592,13.1567283 C22.0604399,13.4161346 21.8078042,13.6852264 21.5517893,13.9508868 C21.2482996,14.2657774 20.9451146,14.5809723 20.6340909,14.9040818 Z"/>
</svg>

<svg xmlns="http://www.w3.org/2000/svg" width="32" height="32"><path d="M16 32C7.163 32 0 24.837 0 16S7.163 0 16 0s16 7.163 16 16-7.163 16-16 16zm-.504-5h1.025c.044-.009.089-.02.134-.026.339-.037.68-.057 1.017-.11 2.67-.428 4.886-1.676 6.67-3.702.07-.08.078-.132.011-.22-.77-1.02-1.536-2.041-2.303-3.063-.024-.032-.053-.06-.084-.097l-.107.158a7.149 7.149 0 0 1-2.728 2.39c-.105.054-.17.055-.26-.035-.363-.368-.736-.725-1.105-1.087l-.665-.647c-2.208 1.65-4.404 3.29-6.61 4.94.037.025.054.04.073.05a10.88 10.88 0 0 0 4.122 1.364c.27.032.54.057.81.085zm.97-22h-.943c-.048.009-.097.02-.146.026-.435.051-.875.077-1.304.155-2.234.405-4.16 1.412-5.783 2.995-.25.243-.48.506-.728.77l2.467 3.287.102-.15A7.147 7.147 0 0 1 12.9 9.66c.093-.047.15-.039.225.035.469.464.943.923 1.415 1.383.085.083.171.163.26.247 2.244-1.61 4.476-3.21 6.718-4.82-.033-.023-.05-.037-.07-.048a10.887 10.887 0 0 0-4.422-1.4c-.188-.018-.375-.038-.562-.057zM6.458 10.534c-1.335 2.42-1.776 4.958-1.232 7.644.508 2.51 1.774 4.578 3.724 6.257l3.26-2.446c-.017-.034-.02-.044-.026-.049l-.103-.07A7.134 7.134 0 0 1 9.66 19.1c-.044-.087-.041-.142.031-.214.256-.253.505-.513.756-.77l1.008-1.034-4.995-6.548zm14.175 4.37l4.923 6.503c1.224-2.056 1.854-4.976 1.147-7.928-.566-2.365-1.799-4.324-3.656-5.915l-3.279 2.46c.063.045.099.072.136.097a7.137 7.137 0 0 1 2.45 2.798c.048.096.05.157-.032.238-.263.26-.515.528-.771.794l-.918.953z"/></svg>
